-----BEGIN PGP PUBLIC KEY BLOCK-----

mQINBGpOtT8BEAC6xSFMtNGhXwLd0BOMRtnREJHesYG3m5BveRn9PT85Ibv/p10m
qOT9PTSfmDtcc5XeFi6HPcZWq8WXbEyg9HflIVD60i+ELStP3lkM6pJeuR1m/Shi
7JlfcXPmWDhZ+nNEJOdzeiMazeeW5FPhuDrore5mzMVP1WE/kkVveJ/YpW1QMv0q
BDeOr/Z/5vKMG2jjRAXZWpFIfYbQ+nC3krmF5WbqI8aKM4SDeOf9v9blTND61e7T
akbOwveEOIbLgkqXg8xUJkJ+Tgm+z6lF69fm646fwLhweB01+N3ypO83dTEO2fWm
zhqveIJJ+P3Pxy47uiPfoovvXqCg3J+UAUwWzYjeGyoT1WE4dDHvTl1VeMAlnlJE
fAWu5Ai/ZZsNIyPTqrorPSOEJz9/VIlSpigC5enGXwQuYveKHDwz66PZZF1S3c+0
QueM3caGQ4h28M/13mkdax6/o4VG7PoLPe+vBVmRPI2lKD5W71C8+Mg9+EkTG8xZ
Thr5qorGhSjTVm+LOlf9/WoqC0E2jpr9a2OfqBQD4FzKIxkyykVZzcmsGiNx2qoo
kEfSxbdlLEuPxmFRHW4vMGCHfNOHM+0p8mHfE/rcMYKvFtOdO6QW/Z5te/ObRU6k
/Ut+EelIOU/a4mWo9rJQfb5yDLYkWquYjBhNlDvI02xYqLFg+06RuyOwxwARAQAB
tEBDYXB0YWluIEtpbGwgU3dpdGNoIEFQVCBSZXBvc2l0b3J5IDxoZWxsb0BjYXB0
YWlua2lsbHN3aXRjaC5jb20+iQJtBBMBCABXFiEEyxxm686R8+k6pxF+hJ6xOwqk
j/cFAmpOtT8bFIAAAAAABAAObWFudTIsMi41KzEuMTIsMCwzAhsDBQsJCAcCAiIC
BhUKCQgLAgQWAgMBAh4HAheAAAoJEISesTsKpI/3F90P/R7NzyklsTSchxt+hXTq
zdy0ZybxhflCCjZua/F+SCOHxrEnZTTUzKugCoi1unPxCOxHW78p9+/JGbfC3b4N
e9miJizPCIf45wnfKsx3DPI/EbWXK9Z6EZfIDB21Pj8XrHGbGWFqgEA/J9bsZJs/
5zvYc0rfRGJAlwFraK4GRBrYM8MEUn2CuVdX7y3OT6DLavLKNzhGvPEZyrljDu5G
dvs+RJD+ws+xQNMlrY7uQZFUN6RieGTgHcbFyu6ON908eWo/pdNm6TDiwdRO346S
nJloE29zVKpH2tTL8I5rsMZyn1m9iX1EVAc5DmvOn1TzB0V/SV2Cw1F0plvr69Ie
tabbYtBTYbxwtaF2kR47Fet0tWTIhwlDXHZzRkExiDoIoxEfoqRxWafz5OkAyRRl
LKBoAy9lIK0J+MaFafP4GchYlEYCzXoaHOrGSrALghNsSjYxHMYE2gzBISqxn6UA
e2wu8L2FcmUB/i7/zSb7p23CUIeONv1fTaBA3BYt1tpTri//8ZfxZ5Yk74Vw7v8h
AphvHJS24aa/U+S/BnXpXJ+WqelS+0ahcsddwckmryzFRARB9jbTyVSF9w6iLB0D
PpjWPfLpu4Quc0YctyVH2vg1GN5Z6bgZPeKW8or8s+aALaM6vvshPh1PqWD0QajN
8ylrc0kByF0C8GftPBLEcvel
=7vM9
-----END PGP PUBLIC KEY BLOCK-----
